icons/svg/subway/subway_warsaw.svg

<?xml version="1.0" encoding="UTF-8" standalone="no"?>
<svg
   xmlns:dc="http://purl.org/dc/elements/1.1/"
   xmlns:cc="http://creativecommons.org/ns#"
   xmlns:rdf="http://www.w3.org/1999/02/22-rdf-syntax-ns#"
   xmlns:svg="http://www.w3.org/2000/svg"
   xmlns="http://www.w3.org/2000/svg"
   xmlns:sodipodi="http://sodipodi.sourceforge.net/DTD/sodipodi-0.dtd"
   xmlns:inkscape="http://www.inkscape.org/namespaces/inkscape"
   width="16"
   height="16"
   id="svg2"
   version="1.1"
   inkscape:version="0.91 r13725"
   sodipodi:docname="subway_warsaw.svg">
  <defs
     id="defs13">
    <sodipodi:namedview
       inkscape:current-layer="svg2"
       inkscape:window-maximized="1"
       inkscape:window-y="-8"
       inkscape:window-x="-8"
       inkscape:cy="65"
       inkscape:cx="77.5"
       inkscape:zoom="1.8153846"
       showgrid="false"
       id="namedview8-4"
       inkscape:window-height="837"
       inkscape:window-width="1440"
       inkscape:pageshadow="2"
       inkscape:pageopacity="0"
       guidetolerance="10"
       gridtolerance="10"
       objecttolerance="10"
       borderopacity="1"
       bordercolor="#666666"
       pagecolor="#ffffff" />
    <sodipodi:namedview
       inkscape:current-layer="svg2"
       inkscape:window-maximized="1"
       inkscape:window-y="-8"
       inkscape:window-x="-8"
       inkscape:cy="65"
       inkscape:cx="77.5"
       inkscape:zoom="1.8153846"
       showgrid="false"
       id="namedview8-1"
       inkscape:window-height="837"
       inkscape:window-width="1440"
       inkscape:pageshadow="2"
       inkscape:pageopacity="0"
       guidetolerance="10"
       gridtolerance="10"
       objecttolerance="10"
       borderopacity="1"
       bordercolor="#666666"
       pagecolor="#ffffff" />
  </defs>
  <sodipodi:namedview
     pagecolor="#ffffff"
     bordercolor="#666666"
     borderopacity="1"
     objecttolerance="10"
     gridtolerance="10"
     guidetolerance="10"
     inkscape:pageopacity="0"
     inkscape:pageshadow="2"
     inkscape:window-width="1920"
     inkscape:window-height="1006"
     id="namedview11"
     showgrid="true"
     inkscape:zoom="36.828073"
     inkscape:cx="9.5436896"
     inkscape:cy="9.7430229"
     inkscape:window-x="1920"
     inkscape:window-y="0"
     inkscape:window-maximized="1"
     inkscape:current-layer="svg2"
     showguides="false">
    <sodipodi:guide
       position="0,0"
       orientation="0,580"
       id="guide2989" />
    <sodipodi:guide
       position="580,0"
       orientation="-580,0"
       id="guide2991" />
    <sodipodi:guide
       position="580,580"
       orientation="0,-580"
       id="guide2993" />
    <sodipodi:guide
       position="0,580"
       orientation="580,0"
       id="guide2995" />
    <sodipodi:guide
       position="0,0"
       orientation="0,580"
       id="guide2997" />
    <sodipodi:guide
       position="580,0"
       orientation="-580,0"
       id="guide2999" />
    <sodipodi:guide
       position="580,580"
       orientation="0,-580"
       id="guide3001" />
    <sodipodi:guide
       position="0,580"
       orientation="580,0"
       id="guide3003" />
    <inkscape:grid
       type="xygrid"
       id="grid3013"
       empspacing="5"
       visible="true"
       enabled="true"
       snapvisiblegridlinesonly="true" />
  </sodipodi:namedview>
  <metadata
     id="metadata2975">image/svg+xmlen<rdf:RDF>
  <cc:Work
     rdf:about="">
    <dc:format>image/svg+xml</dc:format>
    <dc:type
       rdf:resource="http://purl.org/dc/dcmitype/StillImage" />
    <dc:title />
  </cc:Work>
</rdf:RDF>
</metadata>
  <path
     sodipodi:type="inkscape:offset"
     inkscape:radius="0.74182165"
     inkscape:original="M 8 3.8671875 A 4.1324759 4.1324759 0 0 0 3.8671875 8 A 4.1324759 4.1324759 0 0 0 8 12.132812 A 4.1324759 4.1324759 0 0 0 12.132812 8 A 4.1324759 4.1324759 0 0 0 8 3.8671875 z "
     style="fill:#fefefe;fill-opacity:1;fill-rule:nonzero;stroke:none;stroke-width:0.51187307;stroke-linejoin:round;stroke-miterlimit:4;stroke-dasharray:none;stroke-dashoffset:0;stroke-opacity:1"
     id="path4210"
     d="M 8,3.125 C 6.7237795,3.124896 5.4551585,3.6503102 4.5527344,4.5527344 3.6503102,5.4551585 3.124896,6.7237795 3.125,8 3.1248962,9.2762204 3.6503102,10.544842 4.5527344,11.447266 5.4551585,12.34969 6.7237796,12.875104 8,12.875 9.2762203,12.875104 10.544842,12.34969 11.447266,11.447266 12.34969,10.544842 12.875104,9.2762203 12.875,8 12.875104,6.7237796 12.34969,5.4551585 11.447266,4.5527344 10.544842,3.6503102 9.2762204,3.1248962 8,3.125 Z" />
  <path
     style="fill:#dc251b;fill-opacity:1;fill-rule:nonzero;stroke:#dc251b;stroke-width:0.01639102;stroke-linejoin:round;stroke-miterlimit:4;stroke-dasharray:none;stroke-dashoffset:0;stroke-opacity:1"
     d="m 5.5053577,9.672164 c -0.1059268,-0.00254 -0.1861405,-0.00536 -0.1782522,-0.0064 0.012536,-0.0016 0.014342,-0.011721 0.014342,-0.080441 0,-0.047958 0.0096,-0.1382487 0.024608,-0.2315235 0.032874,-0.2042597 0.031294,-0.1979766 0.049803,-0.1979766 0.014637,0 0.015732,-0.00677 0.015622,-0.096297 -1.616e-4,-0.1345309 0.045699,-0.4200195 0.067477,-0.4200195 0.013079,0 0.014595,-0.00903 0.014595,-0.086847 0,-0.058099 0.00816,-0.1360972 0.024646,-0.2356212 0.031917,-0.1926673 0.030056,-0.1856561 0.04927,-0.1856561 0.015308,0 0.016226,-0.00574 0.016078,-0.1003951 -1.87e-4,-0.1185096 0.044249,-0.4159218 0.06214,-0.4159218 0.00717,0 0.011678,-0.023979 0.015017,-0.079904 0.00262,-0.04395 0.016719,-0.1569981 0.031324,-0.2512212 0.02226,-0.1436116 0.028902,-0.1719281 0.041071,-0.1751096 0.012668,-0.00329 0.014515,-0.014214 0.014515,-0.085586 0,-0.052652 0.00881,-0.1348028 0.024729,-0.2305677 0.032345,-0.1945976 0.032172,-0.1938516 0.044796,-0.1938516 0.00804,0 0.012086,-0.022841 0.015608,-0.088098 0.00676,-0.125311 0.053664,-0.4200199 0.066843,-0.4200199 0.00738,0 0.011863,-0.025341 0.015595,-0.088102 0.00445,-0.074897 0.026081,-0.2365663 0.04221,-0.3155269 l 0.0046,-0.022538 0.527959,0 0.527959,0 0,0.1140667 c 0,0.062736 -0.00224,0.1199005 -0.00498,0.1270304 -0.00349,0.0091 -0.015708,0.012964 -0.040978,0.012964 l -0.036003,0 0,0.2160369 c 0,0.1188202 -0.00234,0.2331474 -0.00521,0.2540604 l -0.00521,0.038024 -0.035766,0 -0.035766,0 0,0.2021675 c 0,0.1111917 -0.00406,0.2255189 -0.00904,0.2540602 l -0.00904,0.05189 -0.035389,0 -0.035389,0 -0.00347,0.239718 c -0.00191,0.1318452 -0.00632,0.2480171 -0.0098,0.258159 -0.00511,0.014873 -0.012491,0.018438 -0.038156,0.018438 l -0.031826,0 0,0.1921912 c 0,0.1057046 -0.00386,0.2117346 -0.00857,0.2356203 -0.00471,0.023885 -0.010318,0.05173 -0.012449,0.061871 -0.00324,0.01539 -0.00928,0.018438 -0.036502,0.018438 l -0.032626,0 5.74e-5,0.190545 c 3.28e-5,0.1053235 -0.00427,0.2189536 -0.00961,0.2540611 l -0.00967,0.063517 -0.030733,0 -0.030733,0 -0.00337,0.2028382 c -0.00196,0.1177514 -0.00774,0.2243261 -0.013799,0.2540612 -0.01028,0.05047 -0.010835,0.051222 -0.03768,0.051222 l -0.027245,0 -0.00293,0.1823504 c -0.00215,0.13418 -0.0069,0.2023754 -0.017996,0.258158 l -0.015066,0.075812 -0.027643,0 -0.027643,0 0,0.094248 0,0.094248 -0.3298692,-0.00179 C 5.8463815,9.6775168 5.611273,9.6746868 5.505346,9.6721468 Z"
     id="path3787"
     inkscape:connector-curvature="0" />
  <circle
     r="3.8828733"
     cy="8"
     cx="8"
     style="fill:#fcf604;fill-opacity:1;fill-rule:nonzero;stroke:#dc251b;stroke-width:0.51187307;stroke-linejoin:round;stroke-miterlimit:4;stroke-dasharray:none;stroke-dashoffset:0;stroke-opacity:1"
     id="path2995" />
  <path
     style="fill:#dc251b;fill-opacity:1;stroke:none"
     d="M 6.4201619,9.7290002 5.2584488,9.7187558 5.9468714,5.5800254 7.1334276,5.6035621 Z"
     id="path3767"
     inkscape:connector-curvature="0"
     sodipodi:nodetypes="cccc" />
  <path
     style="fill:#dc251b;fill-opacity:1;stroke:none"
     d="M 9.6237088,9.7566601 10.785422,9.7464157 10.096999,5.6076851 8.9104431,5.6312218 Z"
     id="path3767-2"
     inkscape:connector-curvature="0"
     sodipodi:nodetypes="cccc" />
  <path
     style="fill:#dc251b;fill-opacity:1;stroke:none"
     d="M 8.1598903,7.8508892 8.9218403,5.6128074 9.3070291,7.8829626 9.0246322,8.5137849 8.4837289,8.632503 Z"
     id="path3821"
     inkscape:connector-curvature="0"
     sodipodi:nodetypes="cccccc" />
  <path
     style="fill:#dc251b;fill-opacity:1;stroke:none"
     d="M 7.2906582,6.1887805 6.9139768,8.4488686 7.2292525,9.3309501 6.5570213,9.6091144 8.2723703,10.582691 8.9851674,8.7746208 8.2955507,8.9194977 Z"
     id="path3823"
     inkscape:connector-curvature="0"
     sodipodi:nodetypes="cccccccc" />
</svg>

<svg width="16" height="16" viewBox="0 0 16 16" fill="none" xmlns="http://www.w3.org/2000/svg">
<g clip-path="url(#clip0)">
<path d="M8 3.125C6.72378 3.1249 5.45516 3.65031 4.55273 4.55273C3.65031 5.45516 3.1249 6.72378 3.125 8C3.1249 9.27622 3.65031 10.5448 4.55273 11.4473C5.45516 12.3497 6.72378 12.8751 8 12.875C9.27622 12.8751 10.5448 12.3497 11.4473 11.4473C12.3497 10.5448 12.8751 9.27622 12.875 8C12.8751 6.72378 12.3497 5.45516 11.4473 4.55273C10.5448 3.65031 9.27622 3.1249 8 3.125Z" fill="#FEFEFE"/>
<path d="M5.50539 9.67217C5.39946 9.66963 5.31925 9.66681 5.32713 9.66577C5.33967 9.66417 5.34148 9.65405 5.34148 9.58533C5.34148 9.53738 5.35108 9.44709 5.36608 9.35381C5.39896 9.14955 5.39738 9.15583 5.41589 9.15583C5.43052 9.15583 5.43162 9.14906 5.43151 9.05954C5.43135 8.92501 5.47721 8.63952 5.49899 8.63952C5.51207 8.63952 5.51358 8.63049 5.51358 8.55267C5.51358 8.49457 5.52174 8.41657 5.53823 8.31705C5.57014 8.12438 5.56828 8.13139 5.5875 8.13139C5.60281 8.13139 5.60372 8.12565 5.60358 8.031C5.60339 7.91249 5.64782 7.61508 5.66572 7.61508C5.67289 7.61508 5.67739 7.5911 5.68073 7.53517C5.68335 7.49122 5.69745 7.37817 5.71206 7.28395C5.73432 7.14034 5.74096 7.11202 5.75313 7.10884C5.7658 7.10555 5.76764 7.09463 5.76764 7.02325C5.76764 6.9706 5.77645 6.88845 5.79237 6.79269C5.82472 6.59809 5.82454 6.59884 5.83717 6.59884C5.84521 6.59884 5.84925 6.57599 5.85278 6.51074C5.85954 6.38543 5.90644 6.09072 5.91962 6.09072C5.927 6.09072 5.93148 6.06538 5.93521 6.00262C5.93966 5.92772 5.96129 5.76605 5.97742 5.68709L5.98202 5.66455H6.50998H7.03794V5.77862C7.03794 5.84135 7.0357 5.89852 7.03296 5.90565C7.02947 5.91475 7.01725 5.91861 6.99198 5.91861H6.95598V6.13465C6.95598 6.25347 6.95364 6.3678 6.95077 6.38871L6.94556 6.42673H6.90979H6.87403V6.6289C6.87403 6.74009 6.86997 6.85442 6.86499 6.88296L6.85595 6.93485H6.82056H6.78517L6.7817 7.17457C6.77979 7.30641 6.77538 7.42259 6.7719 7.43273C6.76679 7.4476 6.75941 7.45117 6.73374 7.45117H6.70192V7.64336C6.70192 7.74906 6.69806 7.85509 6.69335 7.87898C6.68864 7.90286 6.68303 7.93071 6.6809 7.94085C6.67766 7.95624 6.67162 7.95929 6.6444 7.95929H6.61177L6.61183 8.14983C6.61186 8.25516 6.60756 8.36879 6.60222 8.40389L6.59255 8.46741H6.56182H6.53108L6.52771 8.67025C6.52575 8.788 6.51997 8.89457 6.51391 8.92431C6.50363 8.97478 6.50308 8.97553 6.47623 8.97553H6.44899L6.44606 9.15788C6.44391 9.29206 6.43916 9.36026 6.42806 9.41604L6.413 9.49185H6.38535H6.35771V9.5861V9.68035L6.02784 9.67856C5.84641 9.67753 5.6113 9.6747 5.50537 9.67216L5.50539 9.67217Z" fill="#DC251B" stroke="#DC251B" stroke-width="0.016391" stroke-linejoin="round"/>
<path d="M8 11.8829C10.1445 11.8829 11.8829 10.1445 11.8829 8C11.8829 5.85555 10.1445 4.11713 8 4.11713C5.85555 4.11713 4.11713 5.85555 4.11713 8C4.11713 10.1445 5.85555 11.8829 8 11.8829Z" fill="#FCF604" stroke="#DC251B" stroke-width="0.511873" stroke-linejoin="round"/>
<path d="M6.42014 9.72899L5.25842 9.71875L5.94685 5.58002L7.1334 5.60355L6.42014 9.72899Z" fill="#DC251B"/>
<path d="M9.62373 9.75667L10.7854 9.74643L10.097 5.6077L8.91046 5.63123L9.62373 9.75667Z" fill="#DC251B"/>
<path d="M8.15991 7.85087L8.92186 5.61279L9.30705 7.88295L9.02465 8.51377L8.48375 8.63249L8.15991 7.85087Z" fill="#DC251B"/>
<path d="M7.29064 6.18878L6.91396 8.44887L7.22924 9.33095L6.55701 9.60912L8.27236 10.5827L8.98515 8.77462L8.29554 8.9195L7.29064 6.18878Z" fill="#DC251B"/>
</g>
<defs>
<clipPath id="clip0">
<path d="M0 0H16V16H0V0Z" fill="white"/>
</clipPath>
</defs>
</svg>
